X: 1
T: Brig of Perth
C: Daniel Dow
Z: John Chambers <jc:trillian.mit.edu>
M: 4/4
L: 1/8
K: A
e \
|: "A"A/B/c/d/ e>A "D"d>A f>A | "A"c>A e>c a>e c<e \
|  "A"A/B/c/d/ e>d c>e A<=c | "G"B<d =G>B g>d B2 :|
| "A"A>a e>a c>a e<a | A<a e>f e>A c2 \
|    A>a e>a c>a A<a | "G"=g>b e>g B>G B2 |
| "A"A>a e>a c>a e<a | A<a e>f e>A c2 \
|    A>a g>a e>a c>a | "G"B<=g d>g B>G B2 |]
